!!!!SEGMENT: Ror0120-Da_quei_bei_lumi_ondio_sempre_sospiro.krn
!!!id: Ror0120
!!!AGN: Secular work
!!!voices: 5
!!!COM: Cipriano de Rore
!!!OTL: Da quei bei lumi ondio sempre sospiro
**kern	**text	**kern	**text	**kern	**text	**kern	**text	**kern	**text
*part5	*part5	*part4	*part4	*part3	*part3	*part2	*part2	*part1	*part1
*staff5	*staff5	*staff4	*staff4	*staff3	*staff3	*staff2	*staff2	*staff1	*staff1
*I"Bassus	*	*I"Tenor II	*	*I"Tenor I	*	*I"Altus	*	*I"Superius	*
*I'B	*	*I'T. II	*	*I'T. I	*	*I'A	*	*I'S	*
*clefF4	*	*clefGv2	*	*clefGv2	*	*clefGv2	*	*clefG2	*
*k[]	*	*k[]	*	*k[]	*	*k[]	*	*k[]	*
*MM140	*	*MM140	*	*MM140	*	*MM140	*	*MM140	*
*M2/1	*	*M2/1	*	*M2/1	*	*M2/1	*	*M2/1	*
*met(C|)	*	*met(C|)	*	*met(C|)	*	*met(C|)	*	*met(C|)	*
=1	=1	=1	=1	=1	=1	=1	=1	=1	=1
0r	.	0r	.	0r	.	1A	Da	1r	.
.	.	.	.	.	.	1c	quei	1e	Da
=2	=2	=2	=2	=2	=2	=2	=2	=2	=2
0r	.	0r	.	1E	Da	2B	bei	2g	quei
.	.	.	.	.	.	1c	lu-	2g	bei
.	.	.	.	1F	quei	.	.	1a	lu-
.	.	.	.	.	.	2d	-mi ond’	.	.
=3	=3	=3	=3	=3	=3	=3	=3	=3	=3
0r	.	0r	.	2E	bei	2e	io	2g	-mi ond’
.	.	.	.	1F	lu-	2c	sem-	1a	io
.	.	.	.	.	.	1d	-pre	.	.
.	.	.	.	2G	-mi ond’	.	.	2b	sem-
=4	=4	=4	=4	=4	=4	=4	=4	=4	=4
1r	.	0r	.	2A	io	2c	so-	2cc	-pre
.	.	.	.	2E	sem-	2.c	-spi-	2g	so-
1AA	Da	.	.	2F	-pre	.	.	1a	-spi-
.	.	.	.	.	.	8BL	.	.	.
.	.	.	.	.	.	8AJ	.	.	.
.	.	.	.	[2E	so-	4c	.	.	.
.	.	.	.	.	.	4d	.	.	.
=5	=5	=5	=5	=5	=5	=5	=5	=5	=5
1C	quei	1E	Da	2E]	.	1e	.	1g	-ro,
.	.	.	.	2.G	-spi-	.	.	.	.
2BB	bei	2G	quei	.	.	2d	-ro,	2r	.
.	.	.	.	4F	.	.	.	.	.
[2C	lu-	2G	bei	4E	.	2c	ond’	2g	ond’
.	.	.	.	4D	.	.	.	.	.
=6	=6	=6	=6	=6	=6	=6	=6	=6	=6
2C]	.	1A	lu-	4E	.	2c	io	2g	io
.	.	.	.	4C	.	.	.	.	.
2D	-mi ond’	.	.	2F	.	2A	sem-	2f	sem-
2E	io	2G	-mi ond’	2C	-ro,	2c	-pre	2e	-pre
2F	sem-	[2A	io	[2F	ond’	2c	so-	2c	so-
=7	=7	=7	=7	=7	=7	=7	=7	=7	=7
2D	-pre	2A]	.	2F]	.	1d	-spi-	1f	-spi-
2D	so-	2B	sem-	2D	io	.	.	.	.
1C	-spi-	2c	-pre	1E	sem-	2G	-ro,	2e	-ro,
.	.	2G	so-	.	.	[2c	Pio-	[2e	Pio-
=8	=8	=8	=8	=8	=8	=8	=8	=8	=8
1AA	-ro,	1A	-spi-	2E	-pre	2c]	.	2e]	.
.	.	.	.	2c	so-	1e	-ve	1a	-ve
1r	.	1E	.	1B	-spi-	.	.	.	.
.	.	.	.	.	.	2e	den-	2g#i	den-
=9	=9	=9	=9	=9	=9	=9	=9	=9	=9
2r	.	1A	-ro,	2.c	.	2e	-tro al	2a	-tro al
1AA	Pio-	.	.	.	.	2e	mio	2a	mio
.	.	.	.	4B	.	.	.	.	.
.	.	1r	.	1A	.	[1c	cor	1e	cor
[2A	-ve	.	.	.	.	.	.	.	.
=10	=10	=10	=10	=10	=10	=10	=10	=10	=10
2A]	.	1r	.	1E	-ro,	2c]	.	1e	u-
2G#X	den-	.	.	.	.	2B	u-	.	.
2A	-tro al	2r	.	1r	.	2c	-na	2e	-na
2A	mio	[2A	Pio-	.	.	2c	tal	2e	tal
=11	=11	=11	=11	=11	=11	=11	=11	=11	=11
1.D	cor	2A]	.	1r	.	0A	fiam-	1.f	fiam-
.	.	1d	-ve	.	.	.	.	.	.
.	.	.	.	2r	.	.	.	.	.
2AA	u-	2c	den-	[2E	Pio-	.	.	2e	-ma,
=12	=12	=12	=12	=12	=12	=12	=12	=12	=12
2AA	-na	2c	-tro al	2E]	.	1e	-ma,	1r	.
2AA	tal	2c	mio	1A	-ve	.	.	.	.
1E	fiam-	1B	cor	.	.	1r	.	1b	Ch’io
.	.	.	.	2G#i	den-	.	.	.	.
=13	=13	=13	=13	=13	=13	=13	=13	=13	=13
0AA	-ma,	1e	u-	2A	-tro al	2r	.	1.cc	sen-
.	.	.	.	2A	mio	1A	Ch’io	.	.
.	.	2e	-na	1E	cor	.	.	.	.
.	.	2e	tal	.	.	[2c	sen-	2a	-to
=14	=14	=14	=14	=14	=14	=14	=14	=14	=14
1r	.	0e	fiam-	1E	u-	2c]	.	2a	con-
.	.	.	.	.	.	2B	-to	2g#i	-su-
1AA	Ch’io	.	.	2E	-na	[1c	con-	1a	-mar-
.	.	.	.	2E	tal	.	.	.	.
=15	=15	=15	=15	=15	=15	=15	=15	=15	=15
1.A	sen-	1c	-ma,	1F	fiam-	2c]	.	2a	-mi a
.	.	.	.	.	.	2A	-su-	1cc	dram-
.	.	1r	.	1E	-ma,	2e	-mar-	.	.
2G#X	-to	.	.	.	.	2e	-mi a	2b	-ma a
=16	=16	=16	=16	=16	=16	=16	=16	=16	=16
2A	con-	2r	.	0r	.	2e	dram-	1cc	dram-
2A	-su-	1A	Ch’io	.	.	2e	-ma a	.	.
[1D	-mar-	.	.	.	.	[1f	dram-	[1a	-ma,
.	.	[2d	sen-	.	.	.	.	.	.
=17	=17	=17	=17	=17	=17	=17	=17	=17	=17
2D]	.	2d]	.	2r	.	2f]	.	1a]	.
2AA	-mi a	2c	-to	1E	Ch’io	2e	-ma,	.	.
2AA	dram-	2c	con-	.	.	2r	.	1r	.
2AA	-ma a	2c	-su-	[2A	sen-	2e	Ch’io	.	.
=18	=18	=18	=18	=18	=18	=18	=18	=18	=18
1E	dram-	1B	-mar-	2A]	.	1.e	sen-	1b	Ch’io
.	.	.	.	2G#i	-to	.	.	.	.
1AA	-ma,	2A	-mi a	1A	con-	.	.	[1cc	sen-
.	.	[2e	dram-	.	.	2e	-to	.	.
=19	=19	=19	=19	=19	=19	=19	=19	=19	=19
2r	.	2e]	.	2A	-su-	1.c	con-	2cc]	.
2AA	Ch’io	2e	-ma a	1E	-mar-	.	.	2a	-to
1E	sen-	[1e	dram-	.	.	.	.	2a	con-
.	.	.	.	2E	-mi a	2B	-su-	2g#i	-su-
=20	=20	=20	=20	=20	=20	=20	=20	=20	=20
1AA	-to	1e]	.	2E	dram-	1c	-mar-	1.a	-mar-
.	.	.	.	2E	-ma a	.	.	.	.
[1D	con-	1d	-ma,	[1F	dram-	1A	-mi a	.	.
.	.	.	.	.	.	.	.	2a	-mi a
=21	=21	=21	=21	=21	=21	=21	=21	=21	=21
2D]	.	2r	.	1F]	.	1d	dram-	2a	dram-
2D	-su-	2A	a	.	.	.	.	2a	-ma a
2C	-mar-	2.e	dram-	1E	-ma,	2G	-ma a	2.cc	dram-
2AA	-mi a	.	.	.	.	[2A	dram-	.	.
.	.	4d	.	.	.	.	.	4b	.
=22	=22	=22	=22	=22	=22	=22	=22	=22	=22
2F	dram-	2c	.	1r	.	4A]	.	4a	.
.	.	.	.	.	.	4B	.	4g	.
2F	-ma a	4B	.	.	.	4c	.	1a	.
.	.	4A	.	.	.	4d	.	.	.
1E	dram-	2B	.	2r	.	1e	.	.	.
.	.	2B	-ma a	[2E	Et	.	.	2g#X	-ma,
=23	=23	=23	=23	=23	=23	=23	=23	=23	=23
1AA	-ma,	1c	dram-	2E]	.	1e	-ma,	2r	.
.	.	.	.	2E	l’a-	.	.	1a	Et
2r	.	[1A	-ma,	1F	-ma-	1r	.	.	.
[2D	Et	.	.	.	.	.	.	2a	l’a-
=24	=24	=24	=24	=24	=24	=24	=24	=24	=24
2D]	.	1A]	.	2D	-ro	0r	.	1f	-ma-
2D	l’a-	.	.	1A	m’è	.	.	.	.
1C	-ma-	2r	.	.	.	.	.	[1e	-ro,
.	.	[2A	Et	[2c	dol-	.	.	.	.
=25	=25	=25	=25	=25	=25	=25	=25	=25	=25
2AA	-ro	2A]	.	2c]	.	2r	.	1e]	.
2AA	m’è	2A	l’a-	2c	-ce em-	1e	Et	.	.
2E	dol-	1G	-ma-	2c	-pio	.	.	1r	.
2E	-ce em-	.	.	2B	mar-	2e	l’a-	.	.
=26	=26	=26	=26	=26	=26	=26	=26	=26	=26
2C	-pio	2E	-ro	0A	-ti-	1e	-ma-	2r	.
2AA	mar-	2E	m’è	.	.	.	.	1a	Et
1D	-ti-	2F	dol-	.	.	2d	-ro	.	.
.	.	2F	-ce em-	.	.	2d	m’è	2a	l’a-
=27	=27	=27	=27	=27	=27	=27	=27	=27	=27
1GG	-ro,	2D	-pio	1B	-ro,	1d	dol-	1g	-ma-
.	.	2G	mar-	.	.	.	.	.	.
2r	.	2.A	-ti-	1r	.	2c	-ce em-	2e	-ro
2D	Et	.	.	.	.	2f	-pio	[2a	m’è
.	.	4G	.	.	.	.	.	.	.
=28	=28	=28	=28	=28	=28	=28	=28	=28	=28
2D	l’a-	4F	.	1.A	Et	2f	mar-	2a]	.
.	.	4G	.	.	.	.	.	.	.
2.AA	-ma-	4A	.	.	.	1e	-ti-	1cc	dol-
.	.	4B	.	.	.	.	.	.	.
.	.	4c	.	.	.	.	.	.	.
4BB	.	4d	.	.	.	.	.	.	.
4C	.	[2e	.	2A	l’a-	2e	-ro,	2cc	-ce em-
4D	.	.	.	.	.	.	.	.	.
=29	=29	=29	=29	=29	=29	=29	=29	=29	=29
1E	.	4e]	.	1G	-ma-	2r	.	2b	-pio
.	.	4d	.	.	.	.	.	.	.
.	.	2B	.	.	.	1e	Et	2b	mar-
1AA	-ro	1c	.	[1E	-ro	.	.	1a	-ti-
.	.	.	.	.	.	2e	l’a-	.	.
=30	=30	=30	=30	=30	=30	=30	=30	=30	=30
1E	m’è	1B	-ro.	2E]	.	1g	-ma-	1b	-ro.
.	.	.	.	2B	m’è	.	.	.	.
[1A	dol-	1r	.	[1c	dol-	2e	-ro	1r	.
.	.	.	.	.	.	2e	m’è	.	.
=31	=31	=31	=31	=31	=31	=31	=31	=31	=31
2A]	.	0r	.	2c]	.	1.f	dol-	0r	.
2A	-ce em-	.	.	2c	-ce em-	.	.	.	.
2A	-pio	.	.	2c	-pio	.	.	.	.
2G	mar-	.	.	2B	mar-	2e	-ce em-	.	.
=32	=32	=32	=32	=32	=32	=32	=32	=32	=32
0F	-ti-	1r	.	0A	-ti-	2d	-pio	0r	.
.	.	.	.	.	.	2c	mar-	.	.
.	.	2r	.	.	.	1d	-ti-	.	.
.	.	[2A	Lu-	.	.	.	.	.	.
=33	=33	=33	=33	=33	=33	=33	=33	=33	=33
0E	-ro.	2A]	.	0B	-ro.	1e	-ro.	2r	.
.	.	2G#X	-ci	.	.	.	.	2b	Lu-
.	.	1G#i	so-	.	.	2r	.	2b	-ci
.	.	.	.	.	.	2e	Lu-	2b	so-
=34	=34	=34	=34	=34	=34	=34	=34	=34	=34
0r	.	1A	-a-	0r	.	2e	-ci	1.cc	-a-
.	.	.	.	.	.	2e	so-	.	.
.	.	1E	-vi ov’	.	.	1g	-a-	.	.
.	.	.	.	.	.	.	.	2b	-vi ov’
=35	=35	=35	=35	=35	=35	=35	=35	=35	=35
0r	.	2F	ha	1r	.	2f	-vi ov’	2a	ha
.	.	2C	ri-	.	.	1e	ha	2g	ri-
.	.	4D	-po-	1A	Lu-	.	.	2f	-po-
.	.	4E	.	.	.	.	.	.	.
.	.	4F	.	.	.	2d	ri-	2f	-sto a-
.	.	4G	.	.	.	.	.	.	.
=36	=36	=36	=36	=36	=36	=36	=36	=36	=36
0r	.	4A	.	2A	-ci	2c	-po-	1e	-mo-
.	.	4B	.	.	.	.	.	.	.
.	.	2.c	.	2A	so-	2c	-sto a-	.	.
.	.	.	.	[1c	-a-	4A	-mo-	1e	-re
.	.	4B	.	.	.	4B	.	.	.
.	.	[2A	.	.	.	4c	.	.	.
.	.	.	.	.	.	4d	.	.	.
=37	=37	=37	=37	=37	=37	=37	=37	=37	=37
0r	.	2A]	.	2c]	.	1e	.	2r	.
.	.	2G	-sto a-	2B	-vi ov’	.	.	2b	O-
.	.	4c	-mo-	2A	ha	1e	-re	2cc	-gni
.	.	4d	.	.	.	.	.	.	.
.	.	[2e	.	2G	ri-	.	.	2b	sua
=38	=38	=38	=38	=38	=38	=38	=38	=38	=38
0r	.	2e]	.	2F	-po-	2r	.	1a	gio-
.	.	2d	-re	2F	-sto a-	2A	O-	.	.
.	.	2r	.	1E	-mo-	2c	-gni	[1g	-ia
.	.	[2e	O-	.	.	2B	sua	.	.
=39	=39	=39	=39	=39	=39	=39	=39	=39	=39
0r	.	2e]	.	2E	-re	4B	gio-	1g]	.
.	.	.	.	.	.	4A	.	.	.
.	.	2d	-gni	2G	O-	4B	.	.	.
.	.	.	.	.	.	4c	.	.	.
.	.	2B	sua	2G	-gni	4d	.	2r	.
.	.	.	.	.	.	4B	.	.	.
.	.	[2c	gio-	2E	sua	[2e	.	2g	et
=40	=40	=40	=40	=40	=40	=40	=40	=40	=40
0r	.	2c]	.	1F	gio-	2e]	.	1.a	o-
.	.	4B	.	.	.	2d	-ia	.	.
.	.	4A	.	.	.	.	.	.	.
.	.	1B	.	1E	-ia	2r	.	.	.
.	.	.	.	.	.	2e	et	2g	-gni
=41	=41	=41	=41	=41	=41	=41	=41	=41	=41
0r	.	1A	-ia	2r	.	1e	o-	1.cc	mio
.	.	.	.	2A	et	.	.	.	.
.	.	2r	.	2A	o-	2e	-gni	.	.
.	.	[2d	et	2D	-gni	2f#X	mio	4b	.
.	.	.	.	.	.	.	.	4a	.
=42	=42	=42	=42	=42	=42	=42	=42	=42	=42
0r	.	2d]	.	2G	mio	2g	di-	2b	.
.	.	1c	o-	2A	di-	2.e	-let-	2cc	di-
.	.	.	.	1F	-let-	.	.	1a	-let-
.	.	.	.	.	.	8dL	.	.	.
.	.	.	.	.	.	8cJ	.	.	.
.	.	2A	-gni	.	.	2d	.	.	.
=43	=43	=43	=43	=43	=43	=43	=43	=43	=43
1C	Ca-	1c	mio	2E	-to,	1e	-to,	0g	-to,
.	.	.	.	2G	Ca-	.	.	.	.
2C	-ro	2G	di-	2G	-ro	1e	Ca-	.	.
2C	de	[2c	-let-	2G	de	.	.	.	.
=44	=44	=44	=44	=44	=44	=44	=44	=44	=44
2F	l’al-	2c]	.	1A	l’al-	2c	-ro	0r	.
2F	-ma	4B	.	.	.	2d	de	.	.
.	.	4A	.	.	.	.	.	.	.
1E	mia	1G	-to,	1B	-ma	2e	l’al-	.	.
.	.	.	.	.	.	2e	-ma	.	.
=45	=45	=45	=45	=45	=45	=45	=45	=45	=45
1C	fi-	2r	.	2c	mia	1.e	mia	1g	Ca-
.	.	2G	Ca-	2C	fi-	.	.	.	.
2C	-da-	2G	-ro	[1E	-da-	.	.	2g	-ro
2C	-to al-	2G	de	.	.	2c	fi-	2g	de
=46	=46	=46	=46	=46	=46	=46	=46	=46	=46
1AA	-ber-	2c	l’al-	2E]	.	2c	-da-	1a	l’al-
.	.	2c	-ma	2F#X	-to al-	4B	.	.	.
.	.	.	.	.	.	4A	.	.	.
1GG	-go,	2B	mia	1G	-ber-	1d	.	1b	-ma
.	.	[2G	fi-	.	.	.	.	.	.
=47	=47	=47	=47	=47	=47	=47	=47	=47	=47
0r	.	2G]	.	1C	-go,	2.e	.	2cc	mia
.	.	1c	-da-	.	.	.	.	1g	fi-
.	.	.	.	.	.	4d	.	.	.
.	.	.	.	2r	.	4e	.	.	.
.	.	.	.	.	.	4c	.	.	.
.	.	2F	-to al-	2c	Se	[2f	.	[2a	-da-
=48	=48	=48	=48	=48	=48	=48	=48	=48	=48
1r	.	1A	-ber-	1c	per	2f]	.	4a]	.
.	.	.	.	.	.	.	.	4b	.
.	.	.	.	.	.	2e	-to al-	1cc	.
2r	.	1G	.	1d	soc-	1g	-ber-	.	.
2G	Se	.	.	.	.	.	.	2b	-to al-
=49	=49	=49	=49	=49	=49	=49	=49	=49	=49
2G	per	1C	-go,	2.c	-cor-	1e	-go,	1cc	-ber-
2G	soc-	.	.	.	.	.	.	.	.
.	.	.	.	4B	.	.	.	.	.
1F	-cor-	1r	.	4A	.	2r	.	1cc	-go,
.	.	.	.	4G	.	.	.	.	.
.	.	.	.	[2A	.	2c	Se	.	.
=50	=50	=50	=50	=50	=50	=50	=50	=50	=50
1E	-so	1r	.	2A]	.	2c	per	0r	.
.	.	.	.	2G	-so	2B	soc-	.	.
[1D	del	1A	Se	2F	del	1d	-cor-	.	.
.	.	.	.	2F	af-	.	.	.	.
=51	=51	=51	=51	=51	=51	=51	=51	=51	=51
2D]	.	2A	per	1F	-flit-	2A	-so	0r	.
2AA	af-	2A	soc-	.	.	2c	del	.	.
2BB	-flit-	[1G	-cor-	2D	-to	2d	af-	.	.
2C	-to	.	.	[2E	co-	[2c	-flit-	.	.
=52	=52	=52	=52	=52	=52	=52	=52	=52	=52
1AA	co-	2G]	.	2E]	.	2c]	.	0r	.
.	.	2F#X	-so	4D	.	2A	-to	.	.
.	.	.	.	4C	.	.	.	.	.
2GG	-re,	2G	del	2D	-re,	1B-X	co-	.	.
2GG	Se	2D	af-	2d	Se	.	.	.	.
=53	=53	=53	=53	=53	=53	=53	=53	=53	=53
2D	per	2F	-flit-	2d	per	2A	-re,	2r	.
2D	soc-	2F	-to	2d	soc-	2A	Se	2a	Se
2.AA	-cor-	2.E	co-	1c	-cor-	1e	per	2a	per
.	.	.	.	.	.	.	.	2a	soc-
4BB	.	4D	.	.	.	.	.	.	.
=54	=54	=54	=54	=54	=54	=54	=54	=54	=54
2C	.	4E	.	2c	-so	2e	soc-	1g	-cor-
.	.	4F	.	.	.	.	.	.	.
2GG	-so	2G	.	1B-X	del	1d	-cor-	.	.
1D	del	4D	-re,	.	.	.	.	1f	-so
.	.	4E	.	.	.	.	.	.	.
.	.	4F	.	2A	af-	2d	-so	.	.
.	.	4G	.	.	.	.	.	.	.
=55	=55	=55	=55	=55	=55	=55	=55	=55	=55
1AA	af-	2A	.	2A	-flit-	2c	del	1.e	del
.	.	1E	del	2A	-to	2c	af-	.	.
2C	-flit-	.	.	1G	co-	2c	-flit-	.	.
2GG	-to	[2G	af-	.	.	2B	-to	2d	af-
=56	=56	=56	=56	=56	=56	=56	=56	=56	=56
2.C	co-	2G]	.	1E	-re	1e	co-	2c	-flit-
.	.	1A	-flit-	.	.	.	.	2c	-to
4D	.	.	.	.	.	.	.	.	.
1E	.	.	.	2r	.	1e	-re	1B	co-
.	.	2G	-to	2E	Al	.	.	.	.
=57	=57	=57	=57	=57	=57	=57	=57	=57	=57
1AA	-re,	1c	co-	2E	de-	2r	.	1A	-re
.	.	.	.	2E	-si-	2e	Al	.	.
1r	.	1A	-re,	[1F	-a-	1c	de-	2r	.
.	.	.	.	.	.	.	.	2a	Al
=58	=58	=58	=58	=58	=58	=58	=58	=58	=58
0r	.	2r	.	2F]	.	2c	-si-	2a	de-
.	.	2d	Al	4E	.	2f	-a-	2a	-si-
.	.	.	.	4D	.	.	.	.	.
.	.	2d	de-	1G	.	2d	-to	1b	-a-
.	.	2d	-si-	.	.	[2g	lo-	.	.
=59	=59	=59	=59	=59	=59	=59	=59	=59	=59
0r	.	1e	-a-	2E	-to	2g]	.	2b	-to
.	.	.	.	2.A	lo-	1e	-ro al-	1cc	lo-
.	.	1c	-to	.	.	.	.	.	.
.	.	.	.	4G	.	.	.	.	.
.	.	.	.	4F	.	[2f	.	[2a	-ro al-
.	.	.	.	4E	.	.	.	.	.
=60	=60	=60	=60	=60	=60	=60	=60	=60	=60
0r	.	2d	lo-	2D	.	2f]	.	2a]	.
.	.	1B	-ro al-	2G	-ro al-	4e	.	2g	-mo
.	.	.	.	.	.	4d	.	.	.
.	.	.	.	2E	-mo	2e	.	2g	ri-
.	.	2A	-mo	2F	ri-	2c	-mo	[2f	-cet-
=61	=61	=61	=61	=61	=61	=61	=61	=61	=61
0r	.	2A	ri-	2.A	-cet-	1c	ri-	4f]	.
.	.	.	.	.	.	.	.	4e	.
.	.	2.c	-cet-	.	.	.	.	2.e	.
.	.	.	.	4G	.	.	.	.	.
.	.	.	.	1F	.	2.A	-cet-	.	.
.	.	4B	.	.	.	.	.	4d	.
.	.	2A	.	.	.	.	.	2d	.
.	.	.	.	.	.	4B	.	.	.
=62	=62	=62	=62	=62	=62	=62	=62	=62	=62
1.C	Gli oc-	0G	-to	0E	-to	2c	.	0e	-to
.	.	.	.	.	.	2c	-to	.	.
.	.	.	.	.	.	2r	.	.	.
2C	-chi	.	.	.	.	[2c	Gli oc-	.	.
=63	=63	=63	=63	=63	=63	=63	=63	=63	=63
2AA	d’hu-	2r	.	0r	.	2c]	.	0r	.
2BB	-mil-	2G	Gli oc-	.	.	2d	-chi	.	.
1C	-tà	2G	-chi	.	.	2e	d’hu-	.	.
.	.	[2A	d’hu-	.	.	2e	-mil-	.	.
=64	=64	=64	=64	=64	=64	=64	=64	=64	=64
1D	pie-	2A]	.	1r	.	1f	-tà	0r	.
.	.	2B	-mil-	.	.	.	.	.	.
2C	-ni	1c	-tà	[1G	Gli oc-	1e	pie-	.	.
2C	vol-	.	.	.	.	.	.	.	.
=65	=65	=65	=65	=65	=65	=65	=65	=65	=65
2GG	-go et	2B	pie-	2G]	.	2d	-ni	1.g	Gli oc-
2.C	er-	2G	-ni	2G	-chi	1e	vol-	.	.
.	.	1c	vol-	2E	d’hu-	.	.	.	.
4BB	.	.	.	.	.	.	.	.	.
2AA	.	.	.	2F#X	-mil-	4d	.	2a	-chi
.	.	.	.	.	.	4c	.	.	.
=66	=66	=66	=66	=66	=66	=66	=66	=66	=66
1GG	-go,	2B	-go et	1G	-tà	4e	.	2b	d’hu-
.	.	.	.	.	.	4f	.	.	.
.	.	1e	er-	.	.	1g	.	2b	-mil-
1r	.	.	.	1A	pie-	.	.	1cc	-tà
.	.	4d	.	.	.	2f#i	-go et	.	.
.	.	4c	.	.	.	.	.	.	.
=67	=67	=67	=67	=67	=67	=67	=67	=67	=67
0r	.	4d	.	2G	-ni	1g	er-	1b	pie-
.	.	4e	.	.	.	.	.	.	.
.	.	2.d	.	2G	vol-	.	.	.	.
.	.	.	.	2F#X	-go et	1d	-go,	2a	-ni
.	.	4c	.	.	.	.	.	.	.
.	.	4B	.	4G	er-	.	.	[2b	vol-
.	.	4A	.	4A	.	.	.	.	.
=68	=68	=68	=68	=68	=68	=68	=68	=68	=68
0r	.	2.G	.	4B	.	1d	vol-	4b]	.
.	.	.	.	4c	.	.	.	4a	.
.	.	.	.	2.d	.	.	.	4b	.
.	.	8FL	.	.	.	.	.	4g	.
.	.	8EJ	.	.	.	.	.	.	.
.	.	2D	.	.	.	2f#X	-go et	4a	.
.	.	.	.	4B	.	.	.	4b	.
.	.	2C	-go,	2e	.	[2g	er-	[2cc	.
=69	=69	=69	=69	=69	=69	=69	=69	=69	=69
1GG	Non	2r	.	1d	-go,	4g]	.	2cc]	.
.	.	.	.	.	.	4f	.	.	.
.	.	1G	Non	.	.	2d	.	2b	-go et
2C	sia	.	.	2r	.	2e	-go,	1cc	er-
[2C	lo-	2G	sia	2c	Non	[2e	Non	.	.
=70	=70	=70	=70	=70	=70	=70	=70	=70	=70
2C]	.	1E	lo-	2G	sia	2e]	.	1cc	-go,
2AA	-ro	.	.	1A	lo-	2e	sia	.	.
1D	dis-	2F	-ro	.	.	1d	lo-	2r	.
.	.	2D	dis-	2F	-ro	.	.	[2a	Non
=71	=71	=71	=71	=71	=71	=71	=71	=71	=71
2.C	-det-	1G	-det-	2E	dis-	1.e	-ro	2a]	.
.	.	.	.	2.G	-det-	.	.	2g	sia
4BB	.	.	.	.	.	.	.	.	.
1AA	.	1A	.	.	.	.	.	1cc	lo-
.	.	.	.	8F#XL	.	.	.	.	.
.	.	.	.	8EJ	.	.	.	.	.
.	.	.	.	2F#i	.	2A	dis-	.	.
=72	=72	=72	=72	=72	=72	=72	=72	=72	=72
1GG	-to	2D	-to	1G	-to	4B	-det-	2b	-ro
.	.	.	.	.	.	4c	.	.	.
.	.	2D	Il	.	.	4d	.	2b	dis-
.	.	.	.	.	.	4B	.	.	.
2r	.	2F	lu-	1r	.	2.c	.	1a	-det-
2AA	Il	2F	-me	.	.	.	.	.	.
.	.	.	.	.	.	4d	.	.	.
=73	=73	=73	=73	=73	=73	=73	=73	=73	=73
1.C	lu-	2E	di	2r	.	1e	.	0g	-to
.	.	2E	quel	2c	Il	.	.	.	.
.	.	2G	sol	2c	lu-	1e	-to	.	.
2C	-me	2G	che ’l	2c	-me	.	.	.	.
=74	=74	=74	=74	=74	=74	=74	=74	=74	=74
2D	di	2F	mon-	2A	di	1r	.	2r	.
2GG	quel	2D	-do ho-	2B-X	quel	.	.	2d	Il
2D	sol	4D	-no-	1A	sol	2r	.	2f	lu-
.	.	4E	.	.	.	.	.	.	.
2D	che ’l	4F	.	.	.	2A	Il	2f	-me
.	.	4G	.	.	.	.	.	.	.
=75	=75	=75	=75	=75	=75	=75	=75	=75	=75
4AA	mon-	1A	.	2A	che ’l	2c	lu-	2e	di
4BB	.	.	.	.	.	.	.	.	.
4C	.	.	.	2e	mon-	2c	-me	2e	quel
4D	.	.	.	.	.	.	.	.	.
2E	.	2G	-ra,	2e	-do ho-	2B	di	1g	sol
2G	-do ho-	2G	che ’l	[2d	-no-	2B	quel	.	.
=76	=76	=76	=76	=76	=76	=76	=76	=76	=76
4D	-no-	2A	mon-	2d]	.	2d	sol	2f#X	che ’l
4E	.	.	.	.	.	.	.	.	.
4F#X	.	2D	-do ho-	2A	-ra,	2d	che ’l	2a	mon-
4G	.	.	.	.	.	.	.	.	.
1A	.	1F	-no-	2r	.	2c	mon-	2a	-do ho-
.	.	.	.	2A	che ’l	2A	-do ho-	[2cc	-no-
=77	=77	=77	=77	=77	=77	=77	=77	=77	=77
1AA	-ra,	1E	-ra,	2c	mon-	4A	-no-	4cc]	.
.	.	.	.	.	.	4B	.	4b	.
.	.	.	.	2c	-do ho-	4c	.	2.a	.
.	.	.	.	.	.	4d	.	.	.
1r	.	1E	Ca-	1B	-no-	1e	.	.	.
.	.	.	.	.	.	.	.	4g#i	.
.	.	.	.	.	.	.	.	2g#i	.
=78	=78	=78	=78	=78	=78	=78	=78	=78	=78
2r	.	2F	-gion	2A	-ra,	1c	-ra,	1a	-ra,
2AA	Ca-	2F	ch’a-	2A	Ca-	.	.	.	.
2C	-gion	2E	-man-	2G	-gion	2r	.	1r	.
2D	ch’a-	2A	-do e ar-	2F	ch’a-	2d	Ca-	.	.
=79	=79	=79	=79	=79	=79	=79	=79	=79	=79
2AA	-man-	2A	-den-	2E	-man-	2c	-gion	0r	.
2D	-do e ar-	2A	-do i’	2D	-do e ar-	2f	ch’a-	.	.
2C	-den-	1c	vi-	2G	-den-	2e	-man-	.	.
2AA	-do i’	.	.	2A	-do i’	2e	-do e ar-	.	.
=80	=80	=80	=80	=80	=80	=80	=80	=80	=80
2D	vi-	2B-X	-va et	2F	vi-	2d	-den-	0r	.
2C	-va et	2.A	mo-	2E	-va et	2e	-do i’	.	.
1BB-X	mo-	.	.	1D	mo-	2f	vi-	.	.
.	.	8GL	.	.	.	.	.	.	.
.	.	8FJ	.	.	.	.	.	.	.
.	.	2G	.	.	.	2d	-va et	.	.
=81	=81	=81	=81	=81	=81	=81	=81	=81	=81
1AA	-ra,	2A	-ra,	2E	-ra,	1c	mo-	1r	.
.	.	2e	Ca-	2E	Ca-	.	.	.	.
1r	.	2d	-gion	2G	-gion	2B	-ra.	2r	.
.	.	2c	ch’a-	2A	ch’a-	2e	Ca-	2a	Ca-
=82	=82	=82	=82	=82	=82	=82	=82	=82	=82
0r	.	2B	-man-	2E	-man-	2e	-gion	2g	-gion
.	.	2A	-do e ar-	2A	-do e ar-	2e	ch’a-	2cc	ch’a-
.	.	2d	-den-	2G	-den-	1g	-man-	2b	-man-
.	.	2e	-do i’	2E	-do i’	.	.	2b	-do e ar-
=83	=83	=83	=83	=83	=83	=83	=83	=83	=83
0r	.	2c	vi-	2A	vi-	2f	-do e ar-	2a	-den-
.	.	2B	-va et	2G	-va et	1e	-den-	2b	-do i’
.	.	1A	mo-	1F	mo-	.	.	2cc	vi-
.	.	.	.	.	.	2d	-do i’	2a	-va et
=84	=84	=84	=84	=84	=84	=84	=84	=84	=84
2r	.	2B	-ra,	1E	-ra,	1e	vi-	1.g	mo-
2E	Ca-	2B	Ca-	.	.	.	.	.	.
2G	-gion	2B	-gion	1r	.	2e	-va et	.	.
2A	ch’a-	2c	ch’a-	.	.	[2e	mo-	2e	-ra,
=85	=85	=85	=85	=85	=85	=85	=85	=85	=85
2E	-man-	2B	-man-	1r	.	2e]	.	2r	.
2A	-do e ar-	2A	-do e ar-	.	.	4d	.	2e	Ca-
.	.	.	.	.	.	4c	.	.	.
2G	-den-	2B	-den-	2r	.	2d	.	2g	-gion
2F	-do i’	2c	-do i’	2A	Ca-	2A	-ra,	2a	ch’a-
=86	=86	=86	=86	=86	=86	=86	=86	=86	=86
2C	vi-	2c	vi-	2G	-gion	0r	.	2e	-man-
2D	-va et	4B	.	2F	ch’a-	.	.	2a	-do e ar-
.	.	4A	.	.	.	.	.	.	.
1E	mo-	2c	.	2E	-man-	.	.	2g	-den-
.	.	2B	-va et	2G	-do e ar-	.	.	2e	-do i’
=87	=87	=87	=87	=87	=87	=87	=87	=87	=87
2AA	-ra,	1c	mo-	2F	-den-	1r	.	2a	vi-
2C	Ca-	.	.	2E	-do i’	.	.	2g	-va et
1D	-gion	1A	-ra,	2.F	vi-	2r	.	1f	mo-
.	.	.	.	.	.	2d	Ca-	.	.
.	.	.	.	4G	.	.	.	.	.
=88	=88	=88	=88	=88	=88	=88	=88	=88	=88
2AA	ch’a-	2r	.	2A	.	1.c	-gion	[0el	-ra.
1C	-man-	2E	Ca-	2G	-va et	.	.	.	.
.	.	2G	-gion	1E	mo-	.	.	.	.
2AA	-do e ar-	2A	ch’a-	.	.	2c	ch’a-	.	.
=89	=89	=89	=89	=89	=89	=89	=89	=89	=89
2.C	-den-	2E	-man-	[0El	-ra.	2G	-man-	0e_	.
.	.	2A	-do e ar-	.	.	2c	-do e ar-	.	.
4D	.	.	.	.	.	.	.	.	.
2E	.	2G	-den-	.	.	2B	-den-	.	.
2AA	-do i’	2E	-do i’	.	.	2c	-do i’	.	.
=90	=90	=90	=90	=90	=90	=90	=90	=90	=90
2AA	vi-	2c	vi-	0E_	.	2A	vi-	0e_	.
2GG#X	-va et	2B	-va et	.	.	2B	-va et	.	.
1AA	mo-	1A	mo-	.	.	1c	mo-	.	.
=91	=91	=91	=91	=91	=91	=91	=91	=91	=91
0El	-ra.	0G#Xl	-ra.	0E]	.	0Bl	-ra.	0e]	.
==	==	==	==	==	==	==	==	==	==
*-	*-	*-	*-	*-	*-	*-	*-	*-	*-
!!!system-decoration: s1,s2,s3,s4,s5
!!!RDF**kern: i = editorial accidental
!!!RDF**kern: l = terminal long
!!!ENC: Janosch Umbreit
!!!END: 2026/04/25
!!!EED: Benjamin Ory
!!!EEV: 2026/05/18
!!!YEC: Copyright 2026 Jessie Ann Owens and Scott Metcalfe, All Rights Reserved
!!!ONB: Translated from MusicXML on 2026/05/18
!!!verovio: header encoded
!!!header-left: Edited by Jessie Ann Owens and Scott Metcalfe (2026)\n
!!!header-right:
!!!header-center:
!!muse2ps: C^@{COM}^i2I150v75,75,75,75,110c122z18l2780t100
